packages/webapp/public/images/template-logos/xero.svg

<svg width="62" height="62" viewBox="0 0 62 62" fill="none" xmlns="http://www.w3.org/2000/svg">
<g clip-path="url(#clip0_496_1364)">
<mask id="mask0_496_1364" style="mask-type:luminance" maskUnits="userSpaceOnUse" x="-1" y="-1" width="64" height="64">
<path d="M-0.683594 -0.734008H62.7233V62.6729H-0.683594V-0.734008Z" fill="white"/>
</mask>
<g mask="url(#mask0_496_1364)">
<path d="M31.0001 52.917C43.1041 52.917 52.9162 43.1049 52.9162 31.0008C52.9162 18.8969 43.1041 9.08476 31.0001 9.08476C18.8962 9.08476 9.08398 18.8969 9.08398 31.0008C9.08398 43.1049 18.8962 52.917 31.0001 52.917Z" fill="#1AB4D7"/>
<path d="M19.575 30.9376L23.3152 27.1882C23.4392 27.0618 23.5084 26.8945 23.5084 26.717C23.5084 26.3472 23.2077 26.0469 22.8379 26.0469C22.6578 26.0469 22.4889 26.1175 22.3615 26.2464C22.3612 26.2472 18.6247 29.9814 18.6247 29.9814L14.8712 26.2408C14.7444 26.1158 14.5763 26.0469 14.3981 26.0469C14.0287 26.0469 13.728 26.3471 13.728 26.7165C13.728 26.8967 13.8 27.0658 13.9291 27.1933L17.6688 30.9324L13.9311 34.6771C13.7997 34.8065 13.728 34.976 13.728 35.157C13.728 35.5267 14.0287 35.8267 14.3981 35.8267C14.5766 35.8267 14.7448 35.7574 14.8712 35.631L18.6189 31.8884L22.3524 35.6173C22.4848 35.7542 22.6556 35.8271 22.8379 35.8271C23.2074 35.8271 23.508 35.5267 23.508 35.157C23.508 34.9786 23.4389 34.8109 23.3131 34.6846L19.575 30.9376Z" fill="white"/>
<path d="M41.8096 30.9366C41.8096 31.6081 42.3556 32.1543 43.0279 32.1543C43.6987 32.1543 44.2449 31.6081 44.2449 30.9366C44.2449 30.2649 43.6987 29.7187 43.0279 29.7187C42.3556 29.7187 41.8096 30.2649 41.8096 30.9366Z" fill="white"/>
<path d="M39.4998 30.9373C39.4998 28.9928 41.0817 27.4106 43.0265 27.4106C44.9704 27.4106 46.5526 28.9928 46.5526 30.9373C46.5526 32.8815 44.9704 34.463 43.0265 34.463C41.0817 34.463 39.4998 32.8815 39.4998 30.9373ZM38.1125 30.9373C38.1125 33.6465 40.317 35.8506 43.0265 35.8506C45.736 35.8506 47.9416 33.6465 47.9416 30.9373C47.9416 28.2278 45.736 26.0231 43.0265 26.0231C40.317 26.0231 38.1125 28.2278 38.1125 30.9373Z" fill="white"/>
<path d="M37.7638 26.1069L37.5576 26.1063C36.9387 26.1063 36.3418 26.3015 35.8432 26.6857C35.7775 26.3851 35.5088 26.1589 35.1887 26.1589C34.8203 26.1589 34.5251 26.4541 34.5242 26.8232C34.5242 26.8246 34.5264 35.0996 34.5264 35.0996C34.5274 35.4681 34.8279 35.7676 35.1966 35.7676C35.5651 35.7676 35.8656 35.4681 35.8666 35.0988C35.8666 35.0971 35.8669 30.0098 35.8669 30.0098C35.8669 28.3137 36.022 27.6287 37.4749 27.4472C37.6092 27.4305 37.7552 27.4331 37.7558 27.4331C38.1534 27.4194 38.4359 27.1462 38.4359 26.777C38.4359 26.4075 38.1343 26.1069 37.7638 26.1069Z" fill="white"/>
<path d="M24.8966 30.1284C24.8966 30.1101 24.898 30.091 24.8989 30.0721C25.2879 28.5341 26.6808 27.396 28.3397 27.396C30.0186 27.396 31.4242 28.5621 31.7934 30.1284H24.8966ZM33.1657 30.0019C32.8769 28.6346 32.1284 27.5116 30.9886 26.7904C29.3224 25.7325 27.1222 25.7911 25.5129 26.9355C24.2002 27.8694 23.4424 29.3971 23.4424 30.9708C23.4424 31.3654 23.49 31.7637 23.589 32.1557C24.0847 34.1057 25.761 35.5818 27.7595 35.8264C28.3526 35.8982 28.9298 35.8639 29.5276 35.7091C30.0412 35.5841 30.5383 35.3758 30.9962 35.0823C31.4716 34.7767 31.8687 34.3738 32.2533 33.8915C32.261 33.8826 32.2689 33.8748 32.2766 33.8654C32.5435 33.5344 32.494 33.0636 32.2007 32.8389C31.9533 32.6493 31.538 32.5724 31.2112 32.9909C31.141 33.091 31.0626 33.1939 30.9763 33.2969C30.7165 33.584 30.3941 33.8622 30.0078 34.078C29.5162 34.3406 28.956 34.4907 28.3605 34.4941C26.4113 34.4724 25.3682 33.1118 24.9972 32.1406C24.9324 31.9593 24.8825 31.7712 24.8476 31.5774C24.8431 31.5412 24.8397 31.5062 24.8384 31.474C25.2414 31.474 31.8332 31.4729 31.8332 31.4729C32.7921 31.4528 33.3082 30.7759 33.1657 30.0019Z" fill="white"/>
</g>
</g>
<defs>
<clipPath id="clip0_496_1364">
<rect width="44" height="44" fill="white" transform="translate(9 9)"/>
</clipPath>
</defs>
</svg>

<svg xmlns="http://www.w3.org/2000/svg" width="62" height="62" fill="none"><g clip-path="url(#B)"><mask id="A" maskUnits="userSpaceOnUse" x="-1" y="-1" width="64" height="64"><path d="M-.684-.734h63.407v63.407H-.684V-.734z" fill="#fff"/></mask><g mask="url(#A)"><path d="M31 52.917a21.92 21.92 0 0 0 21.916-21.916A21.92 21.92 0 0 0 31 9.085 21.92 21.92 0 0 0 9.084 31.001 21.92 21.92 0 0 0 31 52.917z" fill="#1ab4d7"/><path d="M19.575 30.938l3.74-3.749a.67.67 0 0 0-.477-1.141c-.18 0-.349.071-.476.2 0 .001-3.737 3.735-3.737 3.735l-3.754-3.741a.67.67 0 1 0-.942.953l3.74 3.739-3.738 3.745a.67.67 0 0 0 .467 1.15c.178 0 .347-.069.473-.196l3.748-3.743 3.733 3.729a.67.67 0 0 0 1.156-.46c0-.178-.069-.346-.195-.472l-3.738-3.747zm22.234-.001a1.22 1.22 0 0 0 1.218 1.218 1.22 1.22 0 0 0 1.217-1.218 1.22 1.22 0 0 0-1.217-1.218 1.22 1.22 0 0 0-1.218 1.218zm-2.309 0a3.53 3.53 0 0 1 3.527-3.527 3.53 3.53 0 0 1 3.526 3.527 3.53 3.53 0 0 1-3.526 3.526 3.53 3.53 0 0 1-3.527-3.526zm-1.387 0a4.92 4.92 0 0 0 4.914 4.913 4.92 4.92 0 0 0 4.915-4.913 4.92 4.92 0 0 0-4.915-4.914 4.92 4.92 0 0 0-4.914 4.914zm-.349-4.83l-.206-.001c-.619 0-1.216.195-1.714.579a.67.67 0 0 0-.655-.527.66.66 0 0 0-.664.664l.002 8.276a.67.67 0 1 0 1.34-.001V30.01c0-1.696.155-2.381 1.608-2.563.134-.017.28-.014.281-.014.398-.014.68-.287.68-.656a.67.67 0 0 0-.672-.67zm-12.868 4.021l.002-.056a3.55 3.55 0 0 1 6.895.056h-6.897zm8.269-.127c-.289-1.367-1.037-2.49-2.177-3.211-1.666-1.058-3.866-.999-5.476.145a4.97 4.97 0 0 0-2.07 4.035 4.84 4.84 0 0 0 .147 1.185c.496 1.95 2.172 3.426 4.171 3.671a4.67 4.67 0 0 0 1.768-.117 4.84 4.84 0 0 0 1.469-.627c.475-.306.872-.708 1.257-1.191l.023-.026c.267-.331.217-.802-.076-1.026-.247-.19-.663-.267-.99.152l-.235.306a3.85 3.85 0 0 1-.969.781 3.52 3.52 0 0 1-1.647.416c-1.949-.022-2.992-1.382-3.363-2.354a3.52 3.52 0 0 1-.15-.563l-.009-.103 6.995-.001c.959-.02 1.475-.697 1.332-1.471z" fill="#fff"/></g></g><defs><clipPath id="B"><path fill="#fff" transform="translate(9 9)" d="M0 0h44v44H0z"/></clipPath></defs></svg>
